X:787
T:Sean Ryan's
R:Jig
O:Ireland
S:Music from Ireland Vol. 3
B:Music from Ireland Vol. 3
Z:Transcription, chords:Mike Long
M:6/8
L:1/8
K:G
A/B/|\
"Am"cBc "G"BAB|"Am"AGE "G"DB,G,|"Am"A,G,A, EDE|"G"DEG AGE|\
"Am"cec "G"BdB|"Am"AGE "G"DB,G,|"Am"A,G,A, EDE|"G"DB,G, "Am"A,2:|
|:A/B/|\
"Am"cBA ~a3|bag edB|"G"GBd ~g3|GBd cAB|\
"Am"cBc "G"d^cd|"Am"ede "G"gab|"Am"age "G"dBG|"Em"EFG "Am"A2:|
